!!!OTL: Tochter als Faehnrich Der goldene Rosenkranz,
!!!ARE: Europa, Osteuropa, UdSSR, Karpato - Ukraine
!!!YOR: 5, S. 94
!!    1963 gedruckt in Linz
!!!SCT: Q1096C
!!!YEM: Copyright 1995, estate of Helmut Schaffrath.
**kern
*ICvox
*Ivox
*M4/4
*k[f#]
*G:
{4d
=1
8.g
16a
4b
4cc
4a
=2
2.g}
{4dd
=3
4cc
4b
4a
4g
=4
2.a}
{4cc
=5
4ee
4cc
4cc
4cc
=6
4.dd
8cc
4b}
{4dd
=7
4cc
4b
4a
4b
=8
4f#
4e
4.d}
{8d
=9
8.g
16a
4b
4cc
4a
=10
2.g}
==
!!!AGN: ???
!! Melodievergleich zu Q0096A, anderes Lied.  Verzierungen
!!    (Vorschlaege)
!!!ONB: ESAC (Essen Associative Code) Database: BALLADE
!!!AMT: simple quadruple
!!!AIN: vox
!!!EED: Helmut Schaffrath
!!!EEV: 1.0
*-
